X:1
T:Anglais efter Per Nilsson Dahlberg
T:(SvL Skne nr. 214)
S:efter Per Nilsson Dahlberg
S:Svenska Ltar
R:Anglais
Z:Patrik Mnsson, 2009-01-03
O:Nym, Skne
M:2/4
L:1/16
K:A
|: a2aa (ab)(ea) | (ce)A2 c2e2 | b2bb bc'd'b | (ge)fg a4 :|
|: ABcd !trill!f2e2 | (dc)Ac e4 | B2Bc d2dB | (GE)FG A4 :|
